X:28
T:Autumn Child
R:air
C:Brendan O'Regan
Z:id:hn-air-28
M:C|
L:1/8
K:Edor
B=c | B2EF G2AG | F2EF D2B,A, | B,EEF GABc | d2cB ABcd |
B2EF G2AG | F2EF D2B,A, | B,EEF GABA |1 GEFD E2 :|2 GEFD EFGA ||
|: B2e2 d3e | c2BA BEFE | DEFG A2Bc | d2cB ABcd |
B2EF G2AG | F2EF D2B,A, | B,EEF GABA |1 GEFD EFGA :|2 GEFD E2 ||

